CRM-system/src/assets/Calendar.svg

<svg width="14" height="14" viewBox="0 0 14 14" fill="none" xmlns="http://www.w3.org/2000/svg">
<path d="M13 7V11.6667C13 12.0203 12.8595 12.3594 12.6095 12.6095C12.3594 12.8595 12.0203 13 11.6667 13H2.33333C1.97971 13 1.64057 12.8595 1.39052 12.6095C1.14048 12.3594 1 12.0203 1 11.6667V7H13ZM9.66667 1C9.84348 1 10.013 1.07024 10.1381 1.19526C10.2631 1.32029 10.3333 1.48986 10.3333 1.66667V2.33333H11.6667C12.0203 2.33333 12.3594 2.47381 12.6095 2.72386C12.8595 2.97391 13 3.31304 13 3.66667V5.66667H1V3.66667C1 3.31304 1.14048 2.97391 1.39052 2.72386C1.64057 2.47381 1.97971 2.33333 2.33333 2.33333H3.66667V1.66667C3.66667 1.48986 3.7369 1.32029 3.86193 1.19526C3.98695 1.07024 4.15652 1 4.33333 1C4.51014 1 4.67971 1.07024 4.80474 1.19526C4.92976 1.32029 5 1.48986 5 1.66667V2.33333H9V1.66667C9 1.48986 9.07024 1.32029 9.19526 1.19526C9.32029 1.07024 9.48986 1 9.66667 1Z" fill="#999999"/>
</svg>

<svg xmlns="http://www.w3.org/2000/svg" width="14" height="14" fill="none"><path fill="#999" d="M13 7v4.667A1.334 1.334 0 0 1 11.667 13H2.333A1.334 1.334 0 0 1 1 11.667V7h12ZM9.667 1a.667.667 0 0 1 .666.667v.666h1.334A1.333 1.333 0 0 1 13 3.667v2H1v-2a1.333 1.333 0 0 1 1.333-1.334h1.334v-.666a.667.667 0 1 1 1.333 0v.666h4v-.666A.667.667 0 0 1 9.667 1Z"/></svg>
